X: 2
T: The Abbeyleix
R: reel
M: 4/4
L: 1/8
K: Ddor
|:A,|D2ED CA,A,2|FEFG ABcA|d2ed cedc|AcGE EDCA,|
D2ED CA,A,A,|FEFG ABcA|d2ed cedc|AcGE EDD:|
K:D
|:A|d2fd adfd|gAfA eAce|dDcD BDAF|GEFD EA,CE|
d2fd adfd|gAfA eAce|dDcD BDAF|GBAG FDD:|

composer: Sean Ryan
